public/library/scrollscan-text-dark.svg

<svg width="770" height="143" viewBox="0 0 770 143" fill="none" xmlns="http://www.w3.org/2000/svg">
<g clip-path="url(#clip0_11363_1491)">
<path d="M18.03 54.8C12.51 49.57 8.6 42.79 8.6 34.7V33.84C9.06 20.1 20.37 9.05 34.09 8.61H121.6C123.9 8.69 125.73 10.33 125.73 12.66V86.69C127.75 87.06 128.72 87.3 130.66 88.01C132.17 88.56 134.33 89.78 134.33 89.78V12.67C134.2 5.65 128.64 0 121.6 0H34.08C15.21 0.31 0 15.73 0 34.71C0 45.73 5.02 55.12 13.24 61.73C13.79 62.17 14.33 62.75 15.81 62.74C18.39 62.74 20.2 60.71 20.09 58.46C20 56.61 19.22 55.93 18.03 54.8Z" fill="white"/>
<path d="M119.36 91.6109H50.72C46.11 91.6509 42.39 95.4009 42.39 100.011V109.851C42.52 114.411 46.41 118.321 51 118.321H56.1V109.851H51V100.211H53.78C62.44 100.211 68.82 108.281 68.82 116.881C68.82 124.501 61.88 134.271 50.22 133.491C39.87 132.801 34.32 123.601 34.32 116.881V33.2309C34.32 29.4509 31.25 26.3809 27.47 26.3809H20.63V34.9109H25.72V116.881C25.46 133.551 37.6 141.951 50.23 141.951L119.37 142.151C133.31 142.151 144.61 130.831 144.61 116.871C144.61 102.911 133.31 91.5909 119.37 91.5909L119.36 91.6109ZM136 117.431C135.71 126.381 128.37 133.551 119.36 133.551L71.25 133.361C75.1 128.921 77.41 123.161 77.41 116.881C77.41 107.001 71.52 100.211 71.52 100.211H119.36C128.55 100.211 136 107.671 136 116.881V117.431Z" fill="white"/>
<path d="M49.15 27.9199H100.89C103.25 27.9199 105.16 29.8299 105.16 32.1899C105.16 34.5499 103.25 36.4599 100.89 36.4599H49.15V27.9299V27.9199Z" fill="white"/>
<path d="M49.15 68.2109H100.89C103.25 68.2109 105.16 70.1209 105.16 72.4809C105.16 74.8409 103.25 76.7509 100.89 76.7509H49.15V68.2209V68.2109Z" fill="white"/>
<path d="M49.15 48.0703H110C112.36 48.0703 114.27 49.9803 114.27 52.3403C114.27 54.7003 112.36 56.6103 110 56.6103H49.15V48.0803V48.0703Z" fill="white"/>
<path d="M197.89 39.2506C188.2 39.2506 180.7 44.7906 180.7 52.9806C180.7 61.1706 187.05 63.7106 194.89 65.2106L204.81 66.8306C217.96 69.0206 227.08 75.0206 227.08 89.4506C227.08 103.881 214.73 113.221 199.04 113.221C184.88 113.221 171.56 104.871 169.6 88.5606C169.44 87.2006 170.49 85.9906 171.87 85.9906H177.79C178.93 85.9906 179.91 86.8306 180.05 87.9606C181.45 99.5406 190.41 104.101 199.16 104.101C208.74 104.101 216.35 99.3706 216.35 89.7906C216.35 81.2506 210.23 78.2506 202.16 76.7506L192.35 75.0206C178.62 72.7106 169.96 66.1406 169.96 53.5606C169.96 39.0206 182.65 30.1406 197.88 30.1406C210.04 30.1406 223.46 37.0106 226.06 53.2206C226.28 54.6106 225.21 55.8706 223.8 55.8706H217.65C216.55 55.8706 215.59 55.0806 215.41 53.9906C213.62 43.1906 205.75 39.2506 197.88 39.2506H197.89Z" fill="white"/>
<path d="M266.59 48.1895C281.27 48.1895 291.71 56.0295 295.4 68.7995C295.82 70.2495 294.71 71.6995 293.2 71.6995H286.27C285.29 71.6995 284.44 71.0695 284.11 70.1495C281.54 62.8595 275.59 58.6995 266.59 58.6995C254.33 58.6995 247.46 68.6995 247.46 80.7095C247.46 92.7195 254.34 102.719 266.59 102.719C275.6 102.719 281.54 98.5595 284.11 91.2695C284.44 90.3495 285.29 89.7195 286.27 89.7195H293.16C294.68 89.7195 295.78 91.1795 295.35 92.6395C291.4 105.989 281.3 113.229 266.58 113.229C247.7 113.229 235.69 98.5995 235.69 80.7195C235.69 62.8395 247.7 48.2095 266.58 48.2095L266.59 48.1895Z" fill="white"/>
<path d="M306.47 102.819H321.27V61.7294H308.08C306.82 61.7294 305.8 60.7094 305.8 59.4494V53.6194C305.8 52.3594 306.82 51.3394 308.08 51.3394H326.05C329.83 51.3394 332.9 54.4094 332.89 58.1994V59.8694C336.14 52.0294 343.17 50.1094 354.06 50.1094C358.25 50.1094 361.02 50.7894 362.61 51.3794C363.5 51.7094 364.09 52.5594 364.09 53.5194V59.5394C364.09 61.0894 362.58 62.1894 361.11 61.7094C359.15 61.0694 356.42 60.4994 352.82 60.4994C341.19 60.4994 332.89 68.4194 332.89 82.1594V102.829H351.9C353.16 102.829 354.18 103.849 354.18 105.109V110.939C354.18 112.199 353.16 113.219 351.9 113.219H306.46C305.2 113.219 304.18 112.199 304.18 110.939V105.109C304.18 103.849 305.2 102.829 306.46 102.829L306.47 102.819Z" fill="white"/>
<path d="M372.78 80.6995C372.78 62.8195 384.66 48.1895 403.92 48.1895C423.18 48.1895 435.06 62.8195 435.06 80.6995C435.06 98.5795 423.18 113.209 403.92 113.209C384.66 113.209 372.78 98.5795 372.78 80.6995ZM403.92 102.709C416.3 102.709 423.43 92.7095 423.43 80.6995C423.43 68.6895 416.3 58.6895 403.92 58.6895C391.54 58.6895 384.41 68.6895 384.41 80.6995C384.41 92.7095 391.54 102.709 403.92 102.709Z" fill="white"/>
<path d="M460.89 103.309H478.74C480 103.309 481.02 104.329 481.02 105.589V110.929C481.02 112.189 480 113.209 478.74 113.209H452C450.74 113.209 449.72 112.189 449.72 110.929V40.5895H440.84C439.58 40.5895 438.56 39.5695 438.56 38.3095V32.9695C438.56 31.7095 439.58 30.6895 440.84 30.6895H454.04C457.82 30.6895 460.88 33.7495 460.88 37.5295V103.309H460.89Z" fill="white"/>
<path d="M500.36 103.309H518.21C519.47 103.309 520.49 104.329 520.49 105.589V110.929C520.49 112.189 519.47 113.209 518.21 113.209H491.47C490.21 113.209 489.19 112.189 489.19 110.929V40.5895H480.31C479.05 40.5895 478.03 39.5695 478.03 38.3095V32.9695C478.03 31.7095 479.05 30.6895 480.31 30.6895H493.51C497.29 30.6895 500.35 33.7495 500.35 37.5295V103.309H500.36Z" fill="white"/>
<path d="M536.56 107.78C532.73 104.69 530.29 100.62 529.24 95.5705C528.95 94.1605 530.06 92.8505 531.5 92.8505H537.9C538.98 92.8505 539.88 93.6205 540.12 94.6805C540.77 97.5305 542.17 99.4005 544.32 101.03C546.9 102.99 550.11 103.97 553.94 103.97C557.77 103.97 560.67 103.14 563.13 101.47C565.59 99.8105 566.81 97.4705 566.81 94.4705C566.81 91.8905 565.88 89.9505 564 88.6605C562.13 87.3705 559.56 86.3905 556.31 85.7205L548.56 84.3505C542.82 83.2705 538.27 81.2705 534.94 78.3505C531.6 75.4305 529.94 71.5605 529.94 66.7305C529.94 63.0605 531.02 59.8405 533.19 57.0405C535.36 54.2505 538.23 52.0805 541.81 50.5405C545.39 49.0005 549.23 48.2305 553.31 48.2305C559.81 48.2305 565.28 49.9205 569.74 53.2905C573.51 56.1405 575.95 59.9905 577.07 64.8405C577.4 66.2505 576.28 67.6005 574.82 67.6005H568.94C567.92 67.6005 566.99 66.9505 566.72 65.9705C566.02 63.4505 564.61 61.8505 562.5 60.2905C559.95 58.4205 556.98 57.4805 553.56 57.4805C550.14 57.4805 547.21 58.3105 544.75 59.9805C542.29 61.6505 541.06 63.8505 541.06 66.6005C541.06 68.8505 541.93 70.5605 543.69 71.7205C545.44 72.8905 547.94 73.8005 551.19 74.4705L559.06 75.8505C564.89 76.8505 569.6 78.8705 573.18 81.9105C576.76 84.9505 578.55 89.1005 578.55 94.3405C578.55 98.0105 577.49 101.27 575.36 104.15C573.23 107.02 570.32 109.26 566.61 110.84C562.9 112.42 558.76 113.21 554.18 113.21C546.93 113.21 541.06 111.4 536.56 107.77V107.78Z" fill="white"/>
<path d="M661.71 108.109C657.73 104.869 656.21 100.559 656.21 95.0793C656.21 84.9593 663.37 78.6593 678.63 76.2593L687.58 74.7693C690.57 74.2693 692.73 73.6293 694.05 72.8393C695.37 72.0493 696.04 70.6593 696.04 68.6693C696.04 65.4393 694.77 62.8193 692.24 60.8293C689.71 58.8393 686.54 57.8493 682.72 57.8493C678.49 57.8493 675.02 58.9293 672.33 61.0893C670.1 62.8693 668.68 65.2993 668.07 68.3793C667.84 69.5293 666.82 70.3393 665.65 70.2493L659.19 69.7393C657.88 69.6393 656.9 68.4393 657.11 67.1393C657.95 61.7093 660.45 57.3293 664.62 53.9993C669.39 50.1893 675.38 48.2793 682.6 48.2793C687.24 48.2793 691.45 49.1493 695.23 50.8893C699 52.6293 702.01 55.1993 704.25 58.6093C706.49 62.0093 707.61 66.1193 707.61 70.9293V110.939C707.61 111.679 707.1 113.299 705.81 113.299H700.18C699 113.299 698.02 112.419 697.9 111.239C697.73 109.519 697.65 106.069 697.65 104.019C693.58 110.819 686.74 112.979 677.12 112.979C670.82 112.979 665.67 111.359 661.69 108.129L661.71 108.109ZM670.98 101.639C673.42 103.379 676.52 104.249 680.25 104.249C684.98 104.249 688.01 103.039 690.91 100.299C693.81 97.5593 696.05 94.1893 696.05 88.6893V84.3893C696.05 82.9593 694.75 81.8593 693.35 82.1493C692.5 82.3293 691.61 82.4693 690.7 82.5893L680.99 84.3293C676.76 84.9993 673.42 86.0493 670.98 87.4993C668.53 88.9493 667.31 91.2093 667.31 94.2793C667.31 97.3493 668.54 99.8793 670.98 101.619V101.639Z" fill="white"/>
<path d="M618.14 48.2891C632.82 48.2891 643.26 56.1291 646.95 68.8991C647.37 70.3491 646.26 71.7991 644.75 71.7991H637.82C636.84 71.7991 635.99 71.1691 635.66 70.2491C633.09 62.9591 627.14 58.7991 618.14 58.7991C605.88 58.7991 599.01 68.7991 599.01 80.8091C599.01 92.8191 605.89 102.819 618.14 102.819C627.15 102.819 633.09 98.6591 635.66 91.3691C635.99 90.4491 636.84 89.8191 637.82 89.8191H644.71C646.23 89.8191 647.33 91.2791 646.9 92.7391C642.95 106.089 632.85 113.329 618.13 113.329C599.25 113.329 587.24 98.6991 587.24 80.8191C587.24 62.9391 599.25 48.3091 618.13 48.3091L618.14 48.2891Z" fill="white"/>
<path d="M744.33 48.3909C743.96 48.3809 743.22 48.3909 742.85 48.3909C737.35 48.3909 731.4 50.7009 727.57 53.5709V50.6709C727.57 49.4109 726.55 48.3909 725.29 48.3909H719.21C717.95 48.3909 716.93 49.4109 716.93 50.6709C716.93 60.6909 716.93 100.821 716.93 110.851C716.93 112.111 717.95 113.281 719.21 113.281H725.33C726.59 113.281 727.61 112.111 727.61 110.841C727.61 102.591 727.61 75.3709 727.61 75.1809C727.61 66.4109 734.69 59.4609 743.46 59.4609C752.23 59.4609 759.31 66.4009 759.31 75.1809C759.31 75.3809 759.31 102.731 759.31 110.991C759.31 112.251 760.33 113.271 761.59 113.271H767.71C768.97 113.271 769.99 112.251 769.99 110.991C769.99 102.721 769.99 75.3709 769.99 75.1709C769.99 57.0409 757.13 48.7909 744.32 48.3809L744.33 48.3909Z" fill="white"/>
</g>
<defs>
<clipPath id="clip0_11363_1491">
<rect width="770" height="142.16" fill="white"/>
</clipPath>
</defs>
</svg>

<svg xmlns="http://www.w3.org/2000/svg" width="770" height="143" fill="none" viewBox="0 0 770 143"><g fill="#fff" clip-path="url(#a)"><path d="M18.03 54.8C12.51 49.57 8.6 42.79 8.6 34.7v-.86C9.06 20.1 20.37 9.05 34.09 8.61h87.51c2.3.08 4.13 1.72 4.13 4.05v74.03c2.02.37 2.99.61 4.93 1.32 1.51.55 3.67 1.77 3.67 1.77V12.67C134.2 5.65 128.64 0 121.6 0H34.08C15.21.31 0 15.73 0 34.71c0 11.02 5.02 20.41 13.24 27.02.55.44 1.09 1.02 2.57 1.01 2.58 0 4.39-2.03 4.28-4.28-.09-1.85-.87-2.53-2.06-3.66"/><path d="M119.36 91.61H50.72a8.404 8.404 0 0 0-8.33 8.401v9.84c.13 4.56 4.02 8.47 8.61 8.47h5.1v-8.47H51v-9.64h2.78c8.66 0 15.04 8.07 15.04 16.67 0 7.62-6.94 17.39-18.6 16.61-10.35-.69-15.9-9.89-15.9-16.61v-83.65c0-3.78-3.07-6.85-6.85-6.85h-6.84v8.53h5.09v81.97c-.26 16.67 11.88 25.07 24.51 25.07l69.14.2c13.94 0 25.24-11.32 25.24-25.28s-11.3-25.28-25.24-25.28zM136 117.432c-.29 8.95-7.63 16.12-16.64 16.12l-48.11-.19c3.85-4.44 6.16-10.2 6.16-16.48 0-9.88-5.89-16.67-5.89-16.67h47.84c9.19 0 16.64 7.46 16.64 16.67zM49.15 27.92h51.74c2.36 0 4.27 1.91 4.27 4.27s-1.91 4.27-4.27 4.27H49.15v-8.54"/><path d="M49.15 68.21h51.74c2.36 0 4.27 1.91 4.27 4.27s-1.91 4.27-4.27 4.27H49.15v-8.54M49.15 48.07H110c2.36 0 4.27 1.91 4.27 4.27s-1.91 4.27-4.27 4.27H49.15v-8.54M197.89 39.25c-9.69 0-17.19 5.54-17.19 13.73s6.35 10.73 14.19 12.23l9.92 1.62c13.15 2.19 22.27 8.19 22.27 22.62s-12.35 23.771-28.04 23.771c-14.16 0-27.48-8.35-29.44-24.66-.16-1.36.89-2.57 2.27-2.57h5.92c1.14 0 2.12.84 2.26 1.97 1.4 11.58 10.36 16.14 19.11 16.14 9.58 0 17.19-4.73 17.19-14.31 0-8.54-6.12-11.54-14.19-13.04l-9.81-1.73c-13.73-2.31-22.39-8.88-22.39-21.46 0-14.54 12.69-23.42 27.92-23.42 12.16 0 25.58 6.87 28.18 23.08a2.29 2.29 0 0 1-2.26 2.65h-6.15c-1.1 0-2.06-.79-2.24-1.88-1.79-10.8-9.66-14.74-17.53-14.74zM266.59 48.19c14.68 0 25.12 7.84 28.81 20.61.42 1.45-.69 2.9-2.2 2.9h-6.93c-.98 0-1.83-.63-2.16-1.55-2.57-7.29-8.52-11.45-17.52-11.45-12.26 0-19.13 10-19.13 22.01s6.88 22.009 19.13 22.009c9.01 0 14.95-4.16 17.52-11.45.33-.92 1.18-1.55 2.16-1.55h6.89a2.28 2.28 0 0 1 2.19 2.92c-3.95 13.35-14.05 20.59-28.77 20.59-18.88 0-30.89-14.63-30.89-32.51s12.01-32.51 30.89-32.51zM306.47 102.819h14.8v-41.09h-13.19c-1.26 0-2.28-1.02-2.28-2.28v-5.83c0-1.26 1.02-2.28 2.28-2.28h17.97c3.78 0 6.85 3.07 6.84 6.86v1.67c3.25-7.84 10.28-9.76 21.17-9.76 4.19 0 6.96.68 8.55 1.27.89.33 1.48 1.18 1.48 2.14v6.02c0 1.55-1.51 2.65-2.98 2.17-1.96-.64-4.69-1.21-8.29-1.21-11.63 0-19.93 7.92-19.93 21.66v20.67h19.01c1.26 0 2.28 1.02 2.28 2.28v5.83c0 1.26-1.02 2.28-2.28 2.28h-45.44c-1.26 0-2.28-1.02-2.28-2.28v-5.83c0-1.26 1.02-2.28 2.28-2.28zM372.78 80.7c0-17.88 11.88-32.51 31.14-32.51s31.14 14.63 31.14 32.51-11.88 32.509-31.14 32.509-31.14-14.63-31.14-32.51m31.14 22.009c12.38 0 19.51-10 19.51-22.01s-7.13-22.01-19.51-22.01-19.51 10-19.51 22.01 7.13 22.01 19.51 22.01M460.89 103.309h17.85c1.26 0 2.28 1.02 2.28 2.28v5.34c0 1.26-1.02 2.28-2.28 2.28H452c-1.26 0-2.28-1.02-2.28-2.28v-70.34h-8.88c-1.26 0-2.28-1.02-2.28-2.28v-5.34c0-1.26 1.02-2.28 2.28-2.28h13.2c3.78 0 6.84 3.06 6.84 6.84v65.78zM500.36 103.309h17.85c1.26 0 2.28 1.02 2.28 2.28v5.34c0 1.26-1.02 2.28-2.28 2.28h-26.74c-1.26 0-2.28-1.02-2.28-2.28v-70.34h-8.88c-1.26 0-2.28-1.02-2.28-2.28v-5.34c0-1.26 1.02-2.28 2.28-2.28h13.2c3.78 0 6.84 3.06 6.84 6.84v65.78zM536.56 107.78q-5.745-4.635-7.32-12.21c-.29-1.41.82-2.72 2.26-2.72h6.4c1.08 0 1.98.77 2.22 1.83.65 2.85 2.05 4.72 4.2 6.35 2.58 1.96 5.79 2.94 9.62 2.94s6.73-.83 9.19-2.5c2.46-1.66 3.68-4 3.68-7 0-2.58-.93-4.52-2.81-5.81-1.87-1.29-4.44-2.27-7.69-2.94l-7.75-1.37c-5.74-1.08-10.29-3.08-13.62-6-3.34-2.92-5-6.79-5-11.62 0-3.67 1.08-6.89 3.25-9.69 2.17-2.79 5.04-4.96 8.62-6.5s7.42-2.31 11.5-2.31c6.5 0 11.97 1.69 16.43 5.06 3.77 2.85 6.21 6.7 7.33 11.55.33 1.41-.79 2.76-2.25 2.76h-5.88c-1.02 0-1.95-.65-2.22-1.63-.7-2.52-2.11-4.12-4.22-5.68-2.55-1.87-5.52-2.81-8.94-2.81s-6.35.83-8.81 2.5-3.69 3.87-3.69 6.62c0 2.25.87 3.96 2.63 5.12 1.75 1.17 4.25 2.08 7.5 2.75l7.87 1.38c5.83 1 10.54 3.02 14.12 6.06s5.37 7.19 5.37 12.43c0 3.67-1.06 6.93-3.19 9.81-2.13 2.87-5.04 5.11-8.75 6.69s-7.85 2.37-12.43 2.37c-7.25 0-13.12-1.81-17.62-5.44zM661.71 108.109c-3.98-3.24-5.5-7.55-5.5-13.03 0-10.12 7.16-16.42 22.42-18.82l8.95-1.49c2.99-.5 5.15-1.14 6.47-1.93s1.99-2.18 1.99-4.17c0-3.23-1.27-5.85-3.8-7.84s-5.7-2.98-9.52-2.98c-4.23 0-7.7 1.08-10.39 3.24q-3.345 2.67-4.26 7.29c-.23 1.15-1.25 1.96-2.42 1.87l-6.46-.51c-1.31-.1-2.29-1.3-2.08-2.6.84-5.43 3.34-9.81 7.51-13.14 4.77-3.81 10.76-5.72 17.98-5.72q6.96 0 12.63 2.61c3.77 1.74 6.78 4.31 9.02 7.72 2.24 3.4 3.36 7.51 3.36 12.32v40.01c0 .74-.51 2.36-1.8 2.36h-5.63c-1.18 0-2.16-.88-2.28-2.06-.17-1.72-.25-5.17-.25-7.22-4.07 6.8-10.91 8.96-20.53 8.96-6.3 0-11.45-1.62-15.43-4.85zm9.27-6.47c2.44 1.74 5.54 2.61 9.27 2.61 4.73 0 7.76-1.21 10.66-3.95s5.14-6.11 5.14-11.61v-4.3c0-1.43-1.3-2.53-2.7-2.24-.85.18-1.74.32-2.65.44l-9.71 1.74c-4.23.67-7.57 1.72-10.01 3.17-2.45 1.45-3.67 3.71-3.67 6.78s1.23 5.6 3.67 7.34zM618.14 48.29c14.68 0 25.12 7.84 28.81 20.61.42 1.45-.69 2.9-2.2 2.9h-6.93c-.98 0-1.83-.63-2.16-1.55-2.57-7.29-8.52-11.45-17.52-11.45-12.26 0-19.13 10-19.13 22.01s6.88 22.009 19.13 22.009c9.01 0 14.95-4.16 17.52-11.45.33-.92 1.18-1.55 2.16-1.55h6.89a2.28 2.28 0 0 1 2.19 2.92c-3.95 13.35-14.05 20.59-28.77 20.59-18.88 0-30.89-14.63-30.89-32.51s12.01-32.51 30.89-32.51zM744.33 48.39c-.37-.01-1.11 0-1.48 0-5.5 0-11.45 2.31-15.28 5.18v-2.9c0-1.26-1.02-2.28-2.28-2.28h-6.08c-1.26 0-2.28 1.02-2.28 2.28v60.181c0 1.26 1.02 2.43 2.28 2.43h6.12c1.26 0 2.28-1.17 2.28-2.44v-35.66c0-8.77 7.08-15.72 15.85-15.72s15.85 6.94 15.85 15.72v35.81c0 1.26 1.02 2.28 2.28 2.28h6.12c1.26 0 2.28-1.02 2.28-2.28v-35.82c0-18.13-12.86-26.38-25.67-26.79z"/></g><defs><clipPath id="a"><path fill="#fff" d="M0 0h770v142.16H0z"/></clipPath></defs></svg>
